X: 4944
T: Breatnaigh Abú
R: polka
M: 2/4
K: Amajor
|:(FE/C/) (E/F/)A|(B3 A/)B/|c2 F2|F2 E z|z F A/>F/A|B2 AB|c2 f2|f2 ec|
(cd) c/>B/A|B3 A/B/|c2 FA|F2 EC|A2 F>E|C3 B,/A,/|C<E A>G|(F4|F)E/C/ E/F/A|
B3 A/B/|c2 F2|F2 E z|z F A/>F/A|B2 AB|c2 f2|f2 ec|(cd) c/>B/A|B3 A/B/|c2 FA|
F2 EC|A2 F>E|C3 B,/A,/|C<E A>G|F4|z f ec|(B3 A/)B/|c2 f2|f2 e2|fe c>B|
A2 c>B|B/A/F EC|CB, A,B,/C/|E2 FA|EC B,A,|A2 B>e|c3 B/c/|cd c/B/A|Bc AF|
EC A>C|B,3 C/E/|F2 E>C|B,3 A,/B,/|C2 F2|F2 E2|FE C>B,|A,3 B,|CA GE|F A2 G|
F2 E>C|B,3 A,/B,/|CB, A,F,|E,2 C,E,|F,2 A,>B,|C A2 G/A/|FE C/B,/A,|1 A3 G:|2 A4||

